svgs/thin/charging-station.svg

<svg xmlns="http://www.w3.org/2000/svg" viewBox="0 0 576 512"><!--! Font Awesome Pro 6.4.2 by @fontawesome - https://fontawesome.com License - https://fontawesome.com/license (Commercial License) Copyright 2023 Fonticons, Inc. --><path d="M96 16C69.5 16 48 37.5 48 64V416H304V64c0-26.5-21.5-48-48-48H96zM48 432v64H304V432H48zM32 496V64C32 28.7 60.7 0 96 0H256c35.3 0 64 28.7 64 64V272h8c39.8 0 72 32.2 72 72v44c0 24.3 19.7 44 44 44s44-19.7 44-44V255.6c-40.4-4-72-38.1-72-79.6V152c0-13.3 10.7-24 24-24h8V72c0-4.4 3.6-8 8-8s8 3.6 8 8v56h64V72c0-4.4 3.6-8 8-8s8 3.6 8 8v56h8c13.3 0 24 10.7 24 24v24c0 41.5-31.6 75.6-72 79.6V388c0 33.1-26.9 60-60 60s-60-26.9-60-60V344c0-30.9-25.1-56-56-56h-8V496l24 0c4.4 0 8 3.6 8 8s-3.6 8-8 8H320 304 48 32 8c-4.4 0-8-3.6-8-8s3.6-8 8-8l24 0zM536 144H456 440c-4.4 0-8 3.6-8 8v24c0 35.3 28.7 64 64 64s64-28.7 64-64V152c0-4.4-3.6-8-8-8H536zM196.8 105.6c3.5 2.7 4.3 7.7 1.6 11.2L136 200h96c3 0 5.8 1.7 7.2 4.4s1.1 6-.8 8.4l-72 96c-2.7 3.5-7.7 4.3-11.2 1.6s-4.3-7.7-1.6-11.2L216 216H120c-3 0-5.8-1.7-7.2-4.4s-1.1-6 .8-8.4l72-96c2.7-3.5 7.7-4.3 11.2-1.6z"/></svg>

<svg xmlns="http://www.w3.org/2000/svg" viewBox="0 0 576 512"><!--! Font Awesome Pro 6.1.1 by @fontawesome - https://fontawesome.com License - https://fontawesome.com/license (Commercial License) Copyright 2022 Fonticons, Inc. --><path d="M196.8 105.6C200.3 108.3 201.1 113.3 198.4 116.8L136 200H232C235 200 237.8 201.7 239.2 204.4C240.5 207.1 240.2 210.4 238.4 212.8L166.4 308.8C163.7 312.3 158.7 313.1 155.2 310.4C151.7 307.7 150.9 302.7 153.6 299.2L216 216H120C116.1 216 114.2 214.3 112.8 211.6C111.5 208.9 111.8 205.6 113.6 203.2L185.6 107.2C188.3 103.7 193.3 102.9 196.8 105.6V105.6zM32 496V64C32 28.65 60.65 0 96 0H256C291.3 0 320 28.65 320 64V272H328C367.8 272 400 304.2 400 344V388C400 412.3 419.7 432 444 432C468.3 432 488 412.3 488 388V255.6C447.6 251.6 416 217.5 416 176V152C416 138.7 426.7 128 440 128H448V72C448 67.58 451.6 64 456 64C460.4 64 464 67.58 464 72V128H528V72C528 67.58 531.6 64 536 64C540.4 64 544 67.58 544 72V128H552C565.3 128 576 138.7 576 152V176C576 217.5 544.4 251.6 504 255.6V388C504 421.1 477.1 448 444 448C410.9 448 384 421.1 384 388V344C384 313.1 358.9 288 328 288H320V496H344C348.4 496 352 499.6 352 504C352 508.4 348.4 512 344 512H8C3.582 512 0 508.4 0 504C0 499.6 3.582 496 8 496H32zM48 64V416H304V64C304 37.49 282.5 16 256 16H96C69.49 16 48 37.49 48 64zM48 432V496H304V432H48zM440 144C435.6 144 432 147.6 432 152V176C432 211.3 460.7 240 496 240C531.3 240 560 211.3 560 176V152C560 147.6 556.4 144 552 144H440z"/></svg>
